!!!OTL: ICH HAB ZU DIR GESAGT
!!!ARE: Europa, Mitteleuropa, Deutschland, Westfalen, Bayern ?
!!!SCT: E0643
!!!YEM: Copyright 1995, estate of Helmut Schaffrath.
**kern
*ICvox
*Ivox
*M2/4
*k[f#]
*G:
{8d
=1
8g
8a
8b
8cc
=2
4b
8a}
{8b
=3
8cc
8a
8g
8f#
=4
4g
8r}
{8d
=5
8g
8a
8b
8cc
=6
4b
8a}
{8b
=7
8cc
8a
8g
8f#
=8
4g
8r}
{8b
=9
8dd
8cc
8b
8dd
=10
4dd
8cc}
{8b
=11
8cc
8dd
8ee
8cc
=12
4cc
8b}
{8d
=13
8g
8a
8b
8cc
=14
4b
8a}
{8b
=15
8cc
8a
8g
8f#
=16
4g
8r}
==
!!!AGN: Liebes - Lied
!!!ONB: ESAC (Essen Associative Code) Database: ERK2
!!!AMT: simple duple
!!!AIN: vox
!!!EED: Helmut Schaffrath
!!!EEV: 1.0
*-
